X: 3712
T: Billy Wilson
R: reel
M: 4/4
K: Amajor
(3efg|az g2 a2 ea|fedf edcA|B2Bc B2AB|cBcd e2(3efg|
az g2 a2 ea|fedf edcB|ABcd efed|cABG A2:|
AG|ABcd efed|c3 c BABc|ABcd efed|cABG A3 A|
ABcd edcA|BAGA BAGB|ABcd efed|cABG A4:|
A3 A2 BA2|F2F F- FFEF|A3 cB2 c2|e3 e- efec|
B2B B- BcBA|F2F F- FFEF|A2 ae faed|cABG A4:|

